X: 3396
T: RING THE BANJO
%R: march
B: James Kerr "Merry Melodies" v.3 p.43 #396
Z: 2016 John Chambers <jc:trillian.mit.edu>
M: 2/4
L: 1/8
K: G
d |\
dBGA | Bd2d | edBG | A3B |\
G>ABc | dg2e | d>cAB |[1 G3 :|[2 G/D/E/F/ G/A/B/c/ |]
|:\
d2d>d | Bd2d | edBG | A3D |\
G>ABc | dg2e | d>cAB |[1 G/D/E/F/ G/A/B/c/ :|[2 G3 |]

%%sep 1 1 500
%%sep 1 1 500

